X: 3
T: Wink and She'll Follow You
M: 9/8
L: 1/8
R: slip jig
K:DDor
|: E |\
D2 A A2 G ABc | D2 A BGE G2 E | 
DAA A2 G AA/B/c | BGG AGE G2 :|
|: B |\
c2 d ecA A2 c | B2 c dBG G2 B |
[1 c2 d ecA A2 c | BGG AGE G2 :|
[2 c3 dd/e/f g2 e | dBG dB/A/G AG |]
